; generated by Slic3r 1.2.1-dev on 2014-11-19 at 11:09:13

; external perimeters extrusion width = 0.50mm
; perimeters extrusion width = 0.72mm
; infill extrusion width = 0.72mm
; solid infill extrusion width = 0.72mm
; top infill extrusion width = 0.72mm

G21 ; set units to millimeters
M107
M104 S200 ; set temperature
G28 ; home all axes
G1 Z5 F5000 ; lift nozzle

M109 S200 ; wait for temperature to be reached
G90 ; use absolute coordinates
G92 E0
M82 ; use absolute distances for extrusion
G1 E-1.00000 F1800.000
G92 E0
G1 Z0.350 F7800.000
G1 X74.915 Y85.753 F7800.000
G1 E1.00000 F1800.000
G1 X76.668 Y84.274 E1.07096 F1080.000
G1 X78.820 Y83.481 E1.14192
G1 X80.000 Y83.375 E1.17858
G1 X120.000 Y83.375 E2.41623
G1 X122.259 Y83.772 E2.48719
G1 X124.247 Y84.915 E2.55815 F1080.000
G1 X125.726 Y86.668 E2.62912
G1 X126.519 Y88.820 E2.70008
G1 X126.625 Y90.000 E2.73673
G1 X126.625 Y110.000 E3.35555
G1 X126.228 Y112.259 E3.42652
G1 X125.085 Y114.247 E3.49748
G1 X123.332 Y115.726 E3.56844
G1 X121.180 Y116.519 E3.63940
G1 X120.000 Y116.625 E3.67606
G1 X80.000 Y116.625 E4.91371
G1 X77.741 Y116.228 E4.98467
G1 X75.753 Y115.085 E5.05563
G1 X74.274 Y113.332 E5.12659
G1 X73.481 Y111.180 E5.19756
G1 X73.375 Y110.000 E5.23421
G1 X73.375 Y90.000 E5.85303
G1 X73.772 Y87.741 E5.92400
G1 X74.878 Y85.818 E5.99264
G1 E4.99264 F1800.000
G92 E0
G1 X81.600 Y91.600 F7800.000
G1 E1.00000 F1800.000
G1 X118.400 Y91.600 E2.13865 F540.000
G1 X118.400 Y108.400 E2.65848
G1 X81.600 Y108.400 E3.79714
G1 X81.600 Y91.675 E4.31464
G1 X80.975 Y90.975 F7800.000
G1 X119.025 Y90.975 E5.49197 F540.000
G1 X119.025 Y109.025 E6.05046
G1 X80.975 Y109.025 E7.22779
G1 X80.975 Y91.050 E7.78397
G1 X80.350 Y90.350 F7800.000
G1 X119.650 Y90.350 E8.99996 F378.000
G1 X119.650 Y109.650 E9.59713
G1 X80.350 Y109.650 E10.81312
G1 X80.350 Y90.425 E11.40797
G1 X80.783 Y90.600 F7800.000
G1 X82.073 Y107.967 F7800.000
G1 X82.033 Y107.927 E11.40972 F1080.000
G1 X82.033 Y107.034 E11.43735
G1 X82.966 Y107.967 E11.47817
G1 X83.859 Y107.967 E11.50580
G1 X82.033 Y106.141 E11.58569
G1 X82.033 Y105.248 E11.61332
G1 X84.752 Y107.967 E11.73228
G1 X85.644 Y107.967 E11.75991
G1 X82.033 Y104.356 E11.91795
G1 X82.033 Y103.463 E11.94557
G1 X86.537 Y107.967 E12.14268
G1 X87.430 Y107.967 E12.17031
G1 X82.033 Y102.570 E12.40649
G1 X82.033 Y101.677 E12.43412
G1 X88.323 Y107.967 E12.70937
G1 X89.216 Y107.967 E12.73700
G1 X82.033 Y100.784 E13.05132
G1 X82.033 Y99.891 E13.07895
G1 X90.109 Y107.967 E13.43234
G1 X91.002 Y107.967 E13.45997
G1 X82.033 Y98.998 E13.85244
G1 X82.033 Y98.105 E13.88007
G1 X91.895 Y107.967 E14.31160
G1 X92.788 Y107.967 E14.33923
G1 X82.033 Y97.212 E14.80984
G1 X82.033 Y96.319 E14.83747
G1 X93.681 Y107.967 E15.34715
G1 X94.574 Y107.967 E15.37478
G1 X82.033 Y95.426 E15.92353
G1 X82.033 Y94.534 E15.95116
G1 X95.466 Y107.967 E16.53898
G1 X96.359 Y107.967 E16.56661
G1 X82.033 Y93.641 E17.19351
G1 X82.033 Y92.748 E17.22114
G1 X97.252 Y107.967 E17.88710
G1 X98.145 Y107.967 E17.91473
G1 X82.211 Y92.033 E18.61198
G1 X83.104 Y92.033 E18.63961
G1 X99.038 Y107.967 E19.33686
G1 X99.931 Y107.967 E19.36449
G1 X83.997 Y92.033 E20.06174
G1 X84.890 Y92.033 E20.08937
G1 X100.824 Y107.967 E20.78662
G1 X101.717 Y107.967 E20.81425
G1 X85.782 Y92.033 E21.51150
G1 X86.675 Y92.033 E21.53913
G1 X102.610 Y107.967 E22.23638
G1 X103.503 Y107.967 E22.26401
G1 X87.568 Y92.033 E22.96126
G1 X88.461 Y92.033 E22.98889
G1 X104.396 Y107.967 E23.68614
G1 X105.288 Y107.967 E23.71376
G1 X89.354 Y92.033 E24.41102
G1 X90.247 Y92.033 E24.43864
G1 X106.181 Y107.967 E25.13589
G1 X107.074 Y107.967 E25.16352
G1 X91.140 Y92.033 E25.86077
G1 X92.033 Y92.033 E25.88840
G1 X107.967 Y107.967 E26.58565
G1 X108.860 Y107.967 E26.61328
G1 X92.926 Y92.033 E27.31053
G1 X93.819 Y92.033 E27.33816
G1 X109.753 Y107.967 E28.03541
G1 X110.646 Y107.967 E28.06304
G1 X94.712 Y92.033 E28.76029
G1 X95.604 Y92.033 E28.78792
G1 X111.539 Y107.967 E29.48517
G1 X112.432 Y107.967 E29.51280
G1 X96.497 Y92.033 E30.21005
G1 X97.390 Y92.033 E30.23768
G1 X113.325 Y107.967 E30.93493
G1 X114.218 Y107.967 E30.96255
G1 X98.283 Y92.033 E31.65981
G1 X99.176 Y92.033 E31.68743
G1 X115.110 Y107.967 E32.38468
G1 X116.003 Y107.967 E32.41231
G1 X100.069 Y92.033 E33.10956
G1 X100.962 Y92.033 E33.13719
G1 X116.896 Y107.967 E33.83444
G1 X117.789 Y107.967 E33.86207
G1 X101.855 Y92.033 E34.55932
G1 X102.748 Y92.033 E34.58695
G1 X117.967 Y107.252 E35.25292
G1 X117.967 Y106.359 E35.28055
G1 X103.641 Y92.033 E35.90744
G1 X104.534 Y92.033 E35.93507
G1 X117.967 Y105.466 E36.52289
G1 X117.967 Y104.574 E36.55052
G1 X105.426 Y92.033 E37.09928
G1 X106.319 Y92.033 E37.12690
G1 X117.967 Y103.681 E37.63658
G1 X117.967 Y102.788 E37.66421
G1 X107.212 Y92.033 E38.13482
G1 X108.105 Y92.033 E38.16245
G1 X117.967 Y101.895 E38.59399
G1 X117.967 Y101.002 E38.62162
G1 X108.998 Y92.033 E39.01408
G1 X109.891 Y92.033 E39.04171
G1 X117.967 Y100.109 E39.39511
G1 X117.967 Y99.216 E39.42273
G1 X110.784 Y92.033 E39.73706
G1 X111.677 Y92.033 E39.76468
G1 X117.967 Y98.323 E40.03994
G1 X117.967 Y97.430 E40.06756
G1 X112.570 Y92.033 E40.30374
G1 X113.463 Y92.033 E40.33137
G1 X117.967 Y96.537 E40.52848
G1 X117.967 Y95.644 E40.55611
G1 X114.356 Y92.033 E40.71415
G1 X115.248 Y92.033 E40.74177
G1 X117.967 Y94.752 E40.86074
G1 X117.967 Y93.859 E40.88837
G1 X116.141 Y92.033 E40.96826
G1 X117.034 Y92.033 E40.99589
G1 X117.967 Y92.966 E41.03671
G1 X117.967 Y92.073 E41.06434
G1 X117.927 Y92.033 E41.06609
M106 S255
G1 E40.06609 F1800.000
G92 E0
G1 Z0.650 F7800.000
G1 X118.550 Y91.450 F7800.000
G1 E1.00000 F1800.000
G1 X118.550 Y108.550 E1.47502 F1719.678
G1 X81.450 Y108.550 E2.50560
G1 X81.450 Y91.450 E2.98063
G1 X118.475 Y91.450 E4.00913
G1 X119.205 Y90.795 F7800.000
G1 X119.205 Y109.205 E4.52051 F1719.678
G1 X80.795 Y109.205 E5.58745
G1 X80.795 Y90.795 E6.09884
G1 X119.130 Y90.795 E7.16370
G1 X119.750 Y90.250 F7800.000
G1 X119.750 Y109.750 E7.52422 F1203.774
G1 X80.250 Y109.750 E8.25450
G1 X80.250 Y90.250 E8.61503
G1 X119.675 Y90.250 E9.34393
G1 X119.500 Y90.683 F7800.000
G1 X118.096 Y108.056 F7800.000
G1 X118.056 Y108.096 E9.34550 F3439.356
G1 X117.122 Y108.096 E9.37144
G1 X118.096 Y107.122 E9.40970
G1 X118.096 Y106.188 E9.43565
G1 X116.188 Y108.096 E9.51060
G1 X115.254 Y108.096 E9.53654
G1 X118.096 Y105.254 E9.64819
G1 X118.096 Y104.320 E9.67413
G1 X114.320 Y108.096 E9.82247
G1 X113.386 Y108.096 E9.84841
G1 X118.096 Y103.386 E10.03344
G1 X118.096 Y102.452 E10.05938
G1 X112.452 Y108.096 E10.28110
G1 X111.518 Y108.096 E10.30704
G1 X118.096 Y101.518 E10.56545
G1 X118.096 Y100.584 E10.59139
G1 X110.584 Y108.096 E10.88649
G1 X109.650 Y108.096 E10.91244
G1 X118.096 Y99.650 E11.24423
G1 X118.096 Y98.716 E11.27017
G1 X108.716 Y108.096 E11.63865
G1 X107.782 Y108.096 E11.66460
G1 X118.096 Y97.782 E12.06977
G1 X118.096 Y96.848 E12.09571
G1 X106.848 Y108.096 E12.53757
G1 X105.914 Y108.096 E12.56352
G1 X118.096 Y95.914 E13.04207
G1 X118.096 Y94.980 E13.06801
G1 X104.980 Y108.096 E13.58326
G1 X104.046 Y108.096 E13.60920
G1 X118.096 Y94.046 E14.16113
G1 X118.096 Y93.112 E14.18708
G1 X103.112 Y108.096 E14.77570
G1 X102.178 Y108.096 E14.80165
G1 X118.096 Y92.178 E15.42696
G1 X117.436 Y91.904 E15.44682
G1 X101.244 Y108.096 E16.08289
G1 X100.310 Y108.096 E16.10884
G1 X116.502 Y91.904 E16.74492
G1 X115.568 Y91.904 E16.77086
G1 X99.376 Y108.096 E17.40694
G1 X98.442 Y108.096 E17.43288
G1 X114.634 Y91.904 E18.06896
G1 X113.700 Y91.904 E18.09490
G1 X97.508 Y108.096 E18.73098
G1 X96.574 Y108.096 E18.75693
G1 X112.766 Y91.904 E19.39301
G1 X111.832 Y91.904 E19.41895
G1 X95.640 Y108.096 E20.05503
G1 X94.706 Y108.096 E20.08097
G1 X110.898 Y91.904 E20.71705
G1 X109.964 Y91.904 E20.74299
G1 X93.772 Y108.096 E21.37907
G1 X92.838 Y108.096 E21.40502
G1 X109.030 Y91.904 E22.04110
G1 X108.096 Y91.904 E22.06704
G1 X91.904 Y108.096 E22.70312
G1 X90.970 Y108.096 E22.72906
G1 X107.162 Y91.904 E23.36514
G1 X106.228 Y91.904 E23.39108
G1 X90.036 Y108.096 E24.02716
G1 X89.102 Y108.096 E24.05311
G1 X105.294 Y91.904 E24.68919
G1 X104.360 Y91.904 E24.71513
G1 X88.168 Y108.096 E25.35121
G1 X87.234 Y108.096 E25.37715
G1 X103.426 Y91.904 E26.01323
G1 X102.492 Y91.904 E26.03917
G1 X86.300 Y108.096 E26.67525
G1 X85.366 Y108.096 E26.70120
G1 X101.558 Y91.904 E27.33728
G1 X100.624 Y91.904 E27.36322
G1 X84.432 Y108.096 E27.99930
G1 X83.498 Y108.096 E28.02524
G1 X99.690 Y91.904 E28.66132
G1 X98.756 Y91.904 E28.68726
G1 X82.564 Y108.096 E29.32334
G1 X81.904 Y107.822 E29.34319
G1 X97.822 Y91.904 E29.96851
G1 X96.888 Y91.904 E29.99445
G1 X81.904 Y106.888 E30.58308
G1 X81.904 Y105.954 E30.60902
G1 X95.954 Y91.904 E31.16096
G1 X95.020 Y91.904 E31.18690
G1 X81.904 Y105.020 E31.70214
G1 X81.904 Y104.086 E31.72809
G1 X94.086 Y91.904 E32.20664
G1 X93.152 Y91.904 E32.23259
G1 X81.904 Y103.152 E32.67445
G1 X81.904 Y102.218 E32.70039
G1 X92.218 Y91.904 E33.10556
G1 X91.284 Y91.904 E33.13151
G1 X81.904 Y101.284 E33.49999
G1 X81.904 Y100.350 E33.52593
G1 X90.350 Y91.904 E33.85772
G1 X89.416 Y91.904 E33.88366
G1 X81.904 Y99.416 E34.17876
G1 X81.904 Y98.482 E34.20471
G1 X88.482 Y91.904 E34.46311
G1 X87.548 Y91.904 E34.48906
G1 X81.904 Y97.548 E34.71078
G1 X81.904 Y96.614 E34.73672
G1 X86.614 Y91.904 E34.92175
G1 X85.680 Y91.904 E34.94769
G1 X81.904 Y95.680 E35.09602
G1 X81.904 Y94.746 E35.12197
G1 X84.746 Y91.904 E35.23361
G1 X83.812 Y91.904 E35.25956
G1 X81.904 Y93.812 E35.33451
G1 X81.904 Y92.878 E35.36045
G1 X82.878 Y91.904 E35.39872
G1 X81.944 Y91.904 E35.42466
G1 X81.904 Y91.944 E35.42623
G1 E34.42623 F1800.000
G92 E0
G1 Z0.950 F7800.000
G1 X81.450 Y91.450 F7800.000
G1 E1.00000 F1800.000
G1 X118.550 Y91.450 E2.03058 F1720.117
G1 X118.550 Y108.550 E2.50560
G1 X81.450 Y108.550 E3.53619
G1 X81.450 Y91.525 E4.00913
G1 X80.795 Y90.795 F7800.000
G1 X119.205 Y90.795 E5.07607 F1720.117
G1 X119.205 Y109.205 E5.58745
G1 X80.795 Y109.205 E6.65439
G1 X80.795 Y90.870 E7.16370
G1 X80.250 Y90.250 F7800.000
G1 X119.750 Y90.250 E7.89398 F1204.082
G1 X119.750 Y109.750 E8.25450
G1 X80.250 Y109.750 E8.98479
G1 X80.250 Y90.325 E9.34393
G1 X80.683 Y90.500 F7800.000
G1 X81.944 Y108.096 F7800.000
G1 X81.904 Y108.056 E9.34550 F3440.233
G1 X81.904 Y107.122 E9.37144
G1 X82.878 Y108.096 E9.40970
G1 X83.812 Y108.096 E9.43565
G1 X81.904 Y106.188 E9.51060
G1 X81.904 Y105.254 E9.53654
G1 X84.746 Y108.096 E9.64819
G1 X85.680 Y108.096 E9.67413
G1 X81.904 Y104.320 E9.82247
G1 X81.904 Y103.386 E9.84841
G1 X86.614 Y108.096 E10.03344
G1 X87.548 Y108.096 E10.05938
G1 X81.904 Y102.452 E10.28110
G1 X81.904 Y101.518 E10.30704
G1 X88.482 Y108.096 E10.56545
G1 X89.416 Y108.096 E10.59139
G1 X81.904 Y100.584 E10.88649
G1 X81.904 Y99.650 E10.91244
G1 X90.350 Y108.096 E11.24423
G1 X91.284 Y108.096 E11.27017
G1 X81.904 Y98.716 E11.63865
G1 X81.904 Y97.782 E11.66459
G1 X92.218 Y108.096 E12.06977
G1 X93.152 Y108.096 E12.09571
G1 X81.904 Y96.848 E12.53757
G1 X81.904 Y95.914 E12.56352
G1 X94.086 Y108.096 E13.04207
G1 X95.020 Y108.096 E13.06801
G1 X81.904 Y94.980 E13.58326
G1 X81.904 Y94.046 E13.60920
G1 X95.954 Y108.096 E14.16113
G1 X96.888 Y108.096 E14.18708
G1 X81.904 Y93.112 E14.77570
G1 X81.904 Y92.178 E14.80165
G1 X97.822 Y108.096 E15.42696
G1 X98.756 Y108.096 E15.45291
G1 X82.564 Y91.904 E16.08899
G1 X83.498 Y91.904 E16.11493
G1 X99.690 Y108.096 E16.75101
G1 X100.624 Y108.096 E16.77695
G1 X84.432 Y91.904 E17.41303
G1 X85.366 Y91.904 E17.43898
G1 X101.558 Y108.096 E18.07505
G1 X102.492 Y108.096 E18.10100
G1 X86.300 Y91.904 E18.73708
G1 X87.234 Y91.904 E18.76302
G1 X103.426 Y108.096 E19.39910
G1 X104.360 Y108.096 E19.42504
G1 X88.168 Y91.904 E20.06112
G1 X89.102 Y91.904 E20.08707
G1 X105.294 Y108.096 E20.72314
G1 X106.228 Y108.096 E20.74909
G1 X90.036 Y91.904 E21.38517
G1 X90.970 Y91.904 E21.41111
G1 X107.162 Y108.096 E22.04719
G1 X108.096 Y108.096 E22.07313
G1 X91.904 Y91.904 E22.70921
G1 X92.838 Y91.904 E22.73516
G1 X109.030 Y108.096 E23.37123
G1 X109.964 Y108.096 E23.39718
G1 X93.772 Y91.904 E24.03326
G1 X94.706 Y91.904 E24.05920
G1 X110.898 Y108.096 E24.69528
G1 X111.832 Y108.096 E24.72122
G1 X95.640 Y91.904 E25.35730
G1 X96.574 Y91.904 E25.38325
G1 X112.766 Y108.096 E26.01932
G1 X113.700 Y108.096 E26.04527
G1 X97.508 Y91.904 E26.68135
G1 X98.442 Y91.904 E26.70729
G1 X114.634 Y108.096 E27.34337
G1 X115.568 Y108.096 E27.36931
G1 X99.376 Y91.904 E28.00539
G1 X100.310 Y91.904 E28.03134
G1 X116.502 Y108.096 E28.66741
G1 X117.436 Y108.096 E28.69336
G1 X101.244 Y91.904 E29.32944
G1 X102.178 Y91.904 E29.35538
G1 X118.096 Y107.822 E29.98070
G1 X118.096 Y106.888 E30.00664
G1 X103.112 Y91.904 E30.59527
G1 X104.046 Y91.904 E30.62121
G1 X118.096 Y105.954 E31.17314
G1 X118.096 Y105.020 E31.19909
G1 X104.980 Y91.904 E31.71433
G1 X105.914 Y91.904 E31.74028
G1 X118.096 Y104.086 E32.21883
G1 X118.096 Y103.152 E32.24477
G1 X106.848 Y91.904 E32.68663
G1 X107.782 Y91.904 E32.71258
G1 X118.096 Y102.218 E33.11775
G1 X118.096 Y101.284 E33.14369
G1 X108.716 Y91.904 E33.51217
G1 X109.650 Y91.904 E33.53812
G1 X118.096 Y100.350 E33.86991
G1 X118.096 Y99.416 E33.89585
G1 X110.584 Y91.904 E34.19095
G1 X111.518 Y91.904 E34.21689
G1 X118.096 Y98.482 E34.47530
G1 X118.096 Y97.548 E34.50125
G1 X112.452 Y91.904 E34.72296
G1 X113.386 Y91.904 E34.74891
G1 X118.096 Y96.614 E34.93393
G1 X118.096 Y95.680 E34.95988
G1 X114.320 Y91.904 E35.10821
G1 X115.254 Y91.904 E35.13416
G1 X118.096 Y94.746 E35.24580
G1 X118.096 Y93.812 E35.27174
G1 X116.188 Y91.904 E35.34670
G1 X117.122 Y91.904 E35.37264
G1 X118.096 Y92.878 E35.41090
G1 X118.096 Y91.944 E35.43685
G1 X118.056 Y91.904 E35.43842
G1 E34.43842 F1800.000
G92 E0
G1 Z1.250 F7800.000
G1 X118.550 Y91.450 F7800.000
G1 E1.00000 F1800.000
G1 X118.550 Y108.550 E1.47502 F1256.501
G1 X81.450 Y108.550 E2.50560
G1 X81.450 Y91.450 E2.98063
G1 X118.475 Y91.450 E4.00913
G1 X119.205 Y90.795 F7800.000
G1 X119.205 Y109.205 E4.52051 F1256.501
G1 X80.795 Y109.205 E5.58745
G1 X80.795 Y90.795 E6.09884
G1 X119.130 Y90.795 E7.16370
G1 X119.750 Y90.250 F7800.000
G1 X119.750 Y109.750 E7.52422 F879.550
G1 X80.250 Y109.750 E8.25450
G1 X80.250 Y90.250 E8.61503
G1 X119.675 Y90.250 E9.34393
G1 X119.500 Y90.683 F7800.000
G1 X118.076 Y106.820 F7800.000
G1 X116.820 Y108.076 E9.39324 F2513.001
G1 X114.506 Y108.076 E9.45752
G1 X114.982 Y107.600 E9.47621
G1 X116.077 Y107.894 E9.50770
G1 X117.680 Y106.290 E9.57068
G1 X117.387 Y105.195 E9.60217
G1 X118.076 Y104.506 E9.62923
G1 X118.076 Y103.581 E9.65494
G1 X116.924 Y104.733 E9.70019
G1 X115.829 Y104.439 E9.73168
G1 X114.226 Y106.042 E9.79466
G1 X114.519 Y107.137 E9.82615
G1 X113.581 Y108.076 E9.86302
G1 X111.267 Y108.076 E9.92730
G1 X111.358 Y107.984 E9.93089
G1 X111.065 Y106.889 E9.96238
G1 X112.668 Y105.286 E10.02536
G1 X113.763 Y105.580 E10.05685
G1 X115.366 Y103.976 E10.11983
G1 X115.073 Y102.881 E10.15132
G1 X116.676 Y101.278 E10.21430
G1 X117.771 Y101.572 E10.24579
G1 X118.076 Y101.267 E10.25776
G1 X118.076 Y98.265 E10.34113
G1 X117.523 Y98.117 E10.35703
G1 X115.920 Y99.720 E10.42001
G1 X116.213 Y100.815 E10.45150
G1 X114.610 Y102.419 E10.51448
G1 X113.515 Y102.125 E10.54597
G1 X111.912 Y103.728 E10.60895
G1 X112.205 Y104.823 E10.64044
G1 X110.602 Y106.427 E10.70342
G1 X109.507 Y106.133 E10.73491
G1 X107.904 Y107.736 E10.79788
G1 X107.995 Y108.076 E10.80765
G1 X105.250 Y108.076 E10.88389
G1 X106.346 Y106.980 E10.92693
G1 X107.441 Y107.274 E10.95842
G1 X109.044 Y105.670 E11.02140
G1 X108.751 Y104.575 E11.05289
G1 X110.354 Y102.972 E11.11587
G1 X111.449 Y103.266 E11.14736
G1 X113.052 Y101.662 E11.21034
G1 X112.759 Y100.567 E11.24183
G1 X114.362 Y98.964 E11.30480
G1 X115.457 Y99.258 E11.33629
G1 X117.060 Y97.654 E11.39927
G1 X116.767 Y96.559 E11.43076
G1 X118.076 Y95.250 E11.48219
G1 X118.076 Y92.936 E11.54646
G1 X117.614 Y93.399 E11.56461
G1 X117.907 Y94.494 E11.59610
G1 X116.304 Y96.097 E11.65908
G1 X115.209 Y95.803 E11.69057
G1 X113.606 Y97.406 E11.75355
G1 X113.899 Y98.501 E11.78504
G1 X112.296 Y100.105 E11.84802
G1 X111.201 Y99.811 E11.87951
G1 X109.598 Y101.414 E11.94249
G1 X109.891 Y102.509 E11.97398
G1 X108.288 Y104.113 E12.03696
G1 X107.193 Y103.819 E12.06845
G1 X105.590 Y105.422 E12.13143
G1 X105.883 Y106.517 E12.16292
G1 X104.325 Y108.076 E12.22414
